X: 39503
T: Tattie Ball, The
R: reel
M: 4/4
K: Amajor
|AcBc AF F2|E3D EFAB|c2 Bc AF F2|effe f3 z2|
AcBc AF F2|E3D EFAB|c2 Bc AF F2|effe f3 z2||
faef cB B2|eAce fB B2|faef cB B2|effe f3 z|
faef cB B2|eAcA B2 (3Bcd|c2 Bc ecBc|AFFE F3z||

